assets/images/icons/cursors/cursor.svg

<svg fill="none" height="120" viewBox="0 0 79 120" width="79" xmlns="http://www.w3.org/2000/svg"><path d="m14.3198 13.21h-7.15964v79.1994h7.15964l-.0005-7.2001 7.159.0004v-7.2003h7.1594l-.0002 7.1999h7.1594v14.3998l7.159.0002v13.2007h14.3177l.0004-13.2009h-7.1594v-14.3998l-7.1591.0002v-14.4006h21.4771l.0004-7.1991h-7.1594l.0004-7.2001h-7.1594l.0003-7.1999h-7.1594l.0004-7.1999h-7.1594l.0004-7.2001h-7.1594l.0002-7.2001h-7.1594l.0004-7.1994h-7.1594z" fill="#fff"/><g fill="#000"><path d="m14.319 13.2003h-7.15961v79.1994h7.15961v7.2003h-7.15961v7.2h-7.15939v-106.8h7.15939v5.99998h7.15961z"/><path d="m21.478 20.4006h-7.1594l.0004-7.2003h7.159z"/><path d="m28.6369 27.6001h-7.1593l.0004-7.1995 7.1589-.0008z"/><path d="m35.7961 34.8002h-7.1594l.0002-7.2001 7.1592-.0002z"/><path d="m42.9551 42.0003h-7.1594l.0004-7.2001 7.159-.0002z"/><path d="m50.1141 49.2002h-7.1594l.0004-7.1999 7.159-.0004z"/><path d="m57.2733 56.4001h-7.1594l.0002-7.1999 7.1592-.0005z"/><path d="m64.4323 63.6002v-7.2004l-7.159.0003-.0004 7.2001z"/><path d="m50.1139 85.1996.0002-7.2001 28.6359.0002v-7.2005h-7.1594v-7.1995l-7.1583.0005-.0005 7.199h-21.4771v14.4006z"/><path d="m57.2733 99.5994h-7.1594v-14.3998h7.1594z"/><path d="m57.2729 112.8.0004-13.2006 7.159.0002v13.2004z"/><path d="m42.9551 112.8h14.3178l-.0002 7.2h-14.318z"/><path d="m35.7961 99.5994 7.159.0002v13.2004h-7.1594z"/><path d="m28.6367 85.1996h7.1594v14.3998h-7.1594z"/><path d="m21.4776 85.2v-7.2003h7.1593l-.0002 7.1999z"/><path d="m21.4776 85.2-7.159-.0004.0004 7.2001 7.159.0002z"/></g></svg>

<svg width="79" height="120" viewBox="0 0 79 120" fill="none" xmlns="http://www.w3.org/2000/svg">
<path d="M14.3198 13.21H7.16016V92.4094H14.3198L14.3193 85.2093L21.4783 85.2097V78.0094H28.6377L28.6375 85.2093H35.7969V99.6091L42.9559 99.6093V112.81H57.2736L57.274 99.6091H50.1146V85.2093L42.9555 85.2095V70.8089H64.4326L64.433 63.6098H57.2736L57.274 56.4097H50.1146L50.1149 49.2098H42.9555L42.9559 42.0099H35.7965L35.7969 34.8098H28.6375L28.6377 27.6097H21.4783L21.4787 20.4103H14.3193L14.3198 13.21Z" fill="white"/>
<path d="M14.319 13.2003H7.15939V92.3997H14.319V99.6H7.15939V106.8H0V0H7.15939V5.99998H14.319V13.2003Z" fill="black"/>
<path d="M21.478 20.4006H14.3186L14.319 13.2003H21.478V20.4006Z" fill="black"/>
<path d="M28.6369 27.6001H21.4776L21.478 20.4006L28.6369 20.3998V27.6001Z" fill="black"/>
<path d="M35.7961 34.8002H28.6367L28.6369 27.6001L35.7961 27.5999V34.8002Z" fill="black"/>
<path d="M42.9551 42.0003H35.7957L35.7961 34.8002L42.9551 34.8V42.0003Z" fill="black"/>
<path d="M50.1141 49.2002H42.9547L42.9551 42.0003L50.1141 41.9999V49.2002Z" fill="black"/>
<path d="M57.2733 56.4001H50.1139L50.1141 49.2002L57.2733 49.1997V56.4001Z" fill="black"/>
<path d="M64.4323 63.6002V56.3998L57.2733 56.4001L57.2729 63.6002H64.4323Z" fill="black"/>
<path d="M50.1139 85.1996L50.1141 77.9995L78.75 77.9997V70.7992H71.5906V63.5997L64.4323 63.6002L64.4318 70.7992H42.9547V85.1998L50.1139 85.1996Z" fill="black"/>
<path d="M57.2733 99.5994H50.1139V85.1996H57.2733V99.5994Z" fill="black"/>
<path d="M57.2729 112.8L57.2733 99.5994L64.4323 99.5996V112.8H57.2729Z" fill="black"/>
<path d="M42.9551 112.8H57.2729L57.2727 120H42.9547L42.9551 112.8Z" fill="black"/>
<path d="M35.7961 99.5994L42.9551 99.5996V112.8H35.7957L35.7961 99.5994Z" fill="black"/>
<path d="M28.6367 85.1996H35.7961V99.5994H28.6367V85.1996Z" fill="black"/>
<path d="M21.4776 85.2V77.9997H28.6369L28.6367 85.1996L21.4776 85.2Z" fill="black"/>
<path d="M21.4776 85.2L14.3186 85.1996L14.319 92.3997L21.478 92.3999L21.4776 85.2Z" fill="black"/>
</svg>
